assets/Man wrestling/Flat/man_wrestling_flat.svg

<svg width="32" height="32" viewBox="0 0 32 32" fill="none" xmlns="http://www.w3.org/2000/svg">
<path d="M27.1274 16.3C27.2374 16.34 27.3574 16.36 27.4774 16.36C27.9574 16.36 28.3974 16.06 28.5374 15.57L29.4474 12.81C29.6374 12.22 29.5374 11.57 29.1774 11.07C28.8174 10.57 28.2274 10.27 27.6074 10.27H23.4474C22.8174 10.27 22.3174 10.77 22.3174 11.4C22.3174 12.03 22.8274 12.53 23.4474 12.53H27.1774L26.4074 14.88C26.2174 15.47 26.5374 16.11 27.1274 16.3ZM18.3174 12.76L17.6374 12.87C17.5973 12.8766 17.5517 12.8755 17.5057 12.8681L17.6475 12.6899H18.1675C18.3775 12.6899 18.5475 12.5199 18.5475 12.3099C18.5475 12.1268 18.4183 11.9742 18.246 11.938C18.3811 11.8813 18.48 11.7541 18.4874 11.6C18.4974 11.38 18.3174 11.21 18.1074 11.21H17.4774C17.2174 11.21 16.9774 11.32 16.8074 11.52L16.2974 12.25C16.2916 12.257 16.2822 12.27 16.2691 12.288C16.078 12.5511 15.0988 13.9 13.0774 13.9C11.4788 13.9 10.7034 12.3253 10.5903 12.0956C10.5838 12.0825 10.5795 12.0737 10.5774 12.07V12.08L8.53735 12.99C8.58735 13.11 9.87735 15.94 12.9374 16.15C13.0574 16.16 13.1774 16.16 13.2874 16.16C15.0374 16.16 16.6974 15.28 17.7774 13.92L18.0274 13.66C18.0774 13.6 18.1474 13.56 18.2274 13.55L18.4274 13.52C18.6174 13.49 18.7674 13.32 18.7574 13.13C18.7574 12.89 18.5474 12.73 18.3174 12.76Z" fill="#F59F00"/>
<path d="M4.24736 16.1C4.76736 15.57 5.60736 15.57 6.13736 16.08L9.13944 19.0168L7.29508 20.8244L4.26736 17.98C3.73736 17.47 3.72736 16.63 4.24736 16.1ZM27.7475 16.1C27.2275 15.57 26.3875 15.57 25.8575 16.08L22.7944 19.0765L24.6253 20.8943L27.7275 17.98C28.2575 17.47 28.2675 16.63 27.7475 16.1Z" fill="#007ACF"/>
<path d="M10.1274 12.5499L8.57739 10.9899L10.4574 9.10986L12.0174 10.6599L10.1274 12.5499ZM21.7574 12.5499L23.3074 10.9899L21.4274 9.10986L19.8674 10.6599L21.7574 12.5499Z" fill="#FCB100"/>
<path d="M12.598 4.91602H11.368C10.328 4.91602 9.47803 5.76602 9.47803 6.80602L9.88803 8.21602L10.258 9.58602C10.648 10.586 11.998 11.016 12.848 11.016C14.238 11.016 14.458 10.186 14.488 9.01602C14.488 8.96602 14.518 8.92602 14.568 8.91602C14.778 8.86602 14.998 8.69602 14.998 8.48602C14.998 8.37265 14.9161 8.26996 14.814 8.14184C14.7449 8.05524 14.6666 7.95701 14.598 7.83602C14.528 7.70602 14.488 7.54602 14.488 7.39602V6.80602C14.488 5.76602 13.638 4.91602 12.598 4.91602Z" fill="#FFC83D"/>
<path d="M19.2882 4.91602H20.5182C21.5582 4.91602 22.4082 5.76602 22.4082 6.79602L21.9982 8.21602L21.6282 9.58602C21.2382 10.586 19.8882 11.016 19.0382 11.016C17.6482 11.016 17.4282 10.186 17.3982 9.01602C17.3982 8.96602 17.3682 8.92602 17.3182 8.91602C17.1082 8.86602 16.8882 8.69602 16.8882 8.48602C16.8882 8.37265 16.9701 8.26996 17.0722 8.14184C17.1413 8.05524 17.2196 7.95701 17.2882 7.83602C17.3582 7.70602 17.3982 7.54602 17.3982 7.39602V6.80602C17.3982 5.76602 18.2482 4.91602 19.2882 4.91602Z" fill="#FFC83D"/>
<path d="M12.0482 5.77611H14.1782C14.7082 5.48611 14.8282 4.78611 14.4282 4.35611L14.3882 4.30611C14.1682 4.06611 13.8482 3.95611 13.5382 4.01611L12.3382 4.22611C12.2682 4.24611 12.1982 4.25611 12.1282 4.25611H11.0982C10.4482 4.25611 9.8382 4.57611 9.4782 5.12611C9.1182 5.67611 9.0582 6.36611 9.3282 6.96611L9.8882 8.21611L10.4382 7.89611L11.4182 6.90611C11.6482 6.68611 11.7782 6.36611 11.7782 6.04611C11.7782 5.89611 11.8982 5.77611 12.0482 5.77611Z" fill="#F1A11E"/>
<path d="M19.8382 5.77611H17.7082C17.1782 5.48611 17.0582 4.78611 17.4682 4.33611L17.5082 4.30611C17.7282 4.06611 18.0482 3.95611 18.3582 4.01611L19.5582 4.22611C19.6282 4.24611 19.6982 4.25611 19.7682 4.25611H20.7982C21.4482 4.25611 22.0482 4.58611 22.4082 5.12611C22.7682 5.67611 22.8282 6.36611 22.5582 6.96611L21.9982 8.21611L21.4482 7.88611L20.4682 6.90611C20.2382 6.68611 20.1082 6.36611 20.1082 6.04611C20.1082 5.89611 19.9882 5.77611 19.8382 5.77611Z" fill="#F1A11E"/>
<path d="M10.7276 20.58L9.10757 18.99L7.25757 20.8L9.04757 22.48C9.25757 22.69 9.35757 22.96 9.41757 23.27L9.74757 25.99H11.8576V23.27C11.8576 22.27 11.4476 21.28 10.7276 20.58ZM21.2675 20.58L22.8875 18.99L24.7375 20.8L22.9475 22.48C22.7375 22.69 22.6375 22.96 22.5775 23.27L22.2475 25.99H20.1375V23.27C20.1375 22.27 20.5475 21.28 21.2675 20.58Z" fill="#F59F00"/>
<path d="M6.19755 21.03H3.38755L3.84755 22.41C3.89755 22.55 3.89755 22.69 3.84755 22.83L2.48755 27.23H4.51755L6.37755 23.68C6.59755 23 6.59755 22.26 6.37755 21.58L6.19755 21.03ZM25.7974 21.03H28.6074L28.1474 22.41C28.0974 22.55 28.0974 22.69 28.1474 22.83L29.5074 27.23H27.4774L25.6174 23.68C25.3974 23 25.3974 22.26 25.6174 21.58L25.7974 21.03Z" fill="#FFC83D"/>
<path d="M2.55746 26.96H4.65746L6.51746 28.2C6.63746 28.28 6.70746 28.42 6.70746 28.56C6.70746 28.8 6.51746 28.99 6.27746 28.99H2.29746C2.09746 28.99 1.94746 28.79 2.01746 28.6L2.55746 26.96ZM27.3374 26.96H29.4374L29.9774 28.6C30.0474 28.79 29.8974 28.99 29.6974 28.99H25.7174C25.4774 28.99 25.2874 28.8 25.2874 28.56C25.2874 28.42 25.3574 28.28 25.4774 28.2L27.3374 26.96ZM11.8674 27L13.8974 28.08C14.0574 28.16 14.1574 28.33 14.1474 28.51C14.1474 28.78 13.9274 29 13.6574 29H10.2974C10.0574 29 9.86736 28.81 9.86736 28.57L9.79736 27H11.8674ZM20.1274 27L18.0974 28.08C17.9374 28.16 17.8374 28.33 17.8474 28.51C17.8474 28.78 18.0674 29 18.3374 29H21.6974C21.9374 29 22.1274 28.81 22.1274 28.57L22.1974 27H20.1274Z" fill="#533566"/>
<path d="M14.1375 7.97993C14.1375 8.06993 14.0775 8.13993 14.0075 8.13993H13.1075C13.0375 8.13993 12.9775 8.06993 12.9775 7.97993V7.96993C12.9775 7.62993 13.2775 7.42993 13.5575 7.42993C13.8375 7.42993 14.1375 7.61993 14.1375 7.96993V7.97993ZM17.7476 7.97993C17.7476 8.06993 17.8076 8.13993 17.8776 8.13993H18.7776C18.8476 8.13993 18.9076 8.06993 18.9076 7.97993V7.96993C18.9076 7.62993 18.6076 7.42993 18.3276 7.42993C18.0476 7.42993 17.7476 7.61993 17.7476 7.96993V7.97993Z" fill="white"/>
<path d="M14.1375 7.98002C14.1375 8.04002 14.1375 8.09002 14.1175 8.14002H13.4375C13.4275 8.09002 13.4175 8.04002 13.4175 7.98002C13.4175 7.72002 13.5775 7.52002 13.7775 7.52002C13.9775 7.52002 14.1375 7.73002 14.1375 7.98002ZM17.7476 7.98002C17.7476 8.04002 17.7476 8.09002 17.7676 8.14002H18.4476C18.4576 8.09002 18.4676 8.04002 18.4676 7.98002C18.4676 7.72002 18.3076 7.52002 18.1076 7.52002C17.9076 7.52002 17.7476 7.73002 17.7476 7.98002Z" fill="#7D4533"/>
<path d="M14.0475 7.97997C14.0475 8.03997 14.0275 8.09997 13.9975 8.13997H13.6975C13.6675 8.09997 13.6475 8.03997 13.6475 7.97997C13.6475 7.83997 13.7375 7.71997 13.8475 7.71997C13.9575 7.71997 14.0475 7.83997 14.0475 7.97997ZM17.8374 7.97997C17.8374 8.03997 17.8574 8.09997 17.8874 8.13997H18.1874C18.2174 8.09997 18.2374 8.03997 18.2374 7.97997C18.2374 7.83997 18.1474 7.71997 18.0374 7.71997C17.9274 7.71997 17.8374 7.83997 17.8374 7.97997Z" fill="black"/>
<path d="M14.0375 7.79996C14.0375 7.84967 14.0061 7.88996 13.9675 7.88996C13.9288 7.88996 13.8975 7.84967 13.8975 7.79996C13.8975 7.75026 13.9288 7.70996 13.9675 7.70996C14.0061 7.70996 14.0375 7.75026 14.0375 7.79996ZM17.9874 7.79996C17.9874 7.84967 17.9561 7.88996 17.9174 7.88996C17.8788 7.88996 17.8474 7.84967 17.8474 7.79996C17.8474 7.75026 17.8788 7.70996 17.9174 7.70996C17.9561 7.70996 17.9874 7.75026 17.9874 7.79996Z" fill="white"/>
<path d="M13.0573 6.91504C12.9828 6.91504 12.9224 6.97546 12.9224 7.04999C12.9224 7.12452 12.9828 7.18494 13.0573 7.18494H13.8773C13.9518 7.18494 14.0123 7.12452 14.0123 7.04999C14.0123 6.97546 13.9518 6.91504 13.8773 6.91504H13.0573Z" fill="#D37034"/>
<path d="M18.0075 6.91504C17.933 6.91504 17.8726 6.97546 17.8726 7.04999C17.8726 7.12452 17.933 7.18494 18.0075 7.18494H18.8275C18.902 7.18494 18.9625 7.12452 18.9625 7.04999C18.9625 6.97546 18.9011 6.91504 18.8266 6.91504H18.0075Z" fill="#D37034"/>
<path d="M13.0582 6.6499C12.9063 6.6499 12.7832 6.77302 12.7832 6.9249C12.7832 7.07678 12.9063 7.1999 13.0582 7.1999H13.8782C14.0301 7.1999 14.1532 7.07678 14.1532 6.9249C14.1532 6.77302 14.0301 6.6499 13.8782 6.6499H13.0582Z" fill="#D37034"/>
<path d="M18.0082 6.6499C17.8563 6.6499 17.7332 6.77302 17.7332 6.9249C17.7332 7.07678 17.8563 7.1999 18.0082 7.1999H18.8281C18.98 7.1999 19.1032 7.07678 19.1032 6.9249C19.1032 6.77302 18.9791 6.6499 18.8272 6.6499H18.0082Z" fill="#D37034"/>
<path d="M2.37736 17.96C1.88736 16.6 2.23736 15.48 3.15736 14.63L6.70736 11.08C7.74736 10.04 9.43736 10.04 10.4774 11.08C11.5174 12.12 11.5174 13.81 10.4774 14.85L7.49736 17.97C6.92736 18.56 6.15736 18.8 5.42736 18.7L6.22218 21.1096H3.41778L2.37736 17.96ZM28.5771 21.1096L29.6175 17.96C30.1075 16.6 29.7575 15.48 28.8375 14.63L25.2875 11.08C24.2475 10.04 22.5575 10.04 21.5175 11.08C20.4775 12.12 20.4775 13.81 21.5175 14.85L24.4975 17.96C25.0675 18.55 25.8375 18.79 26.5675 18.69L25.7694 21.1096H28.5771Z" fill="#0092E7"/>
<path d="M12.1798 4.38559C12.2161 4.2684 12.1505 4.14396 12.0333 4.10766C11.9161 4.07136 11.7917 4.13694 11.7554 4.25414L11.0554 6.51396C11.0241 6.61445 10.9961 6.71548 10.9715 6.8169C10.9274 6.81238 10.8826 6.81006 10.8374 6.81006C10.1194 6.81006 9.53735 7.39209 9.53735 8.11006C9.53735 8.82803 10.1194 9.41006 10.8374 9.41006C10.9076 9.41006 10.9766 9.40448 11.0438 9.39375C11.2859 10.1932 11.7329 10.9333 12.3649 11.5312C12.454 11.6156 12.5946 11.6117 12.6789 11.5225C12.7632 11.4334 12.7594 11.2928 12.6702 11.2085C12.0915 10.6609 11.6834 9.98216 11.4644 9.2491C11.8656 9.02777 12.1374 8.60065 12.1374 8.11006C12.1374 7.59344 11.836 7.1472 11.3995 6.93754C11.4228 6.83979 11.4496 6.74242 11.4798 6.64559L12.1798 4.38559ZM19.8408 4.10793C19.9579 4.07116 20.0826 4.13623 20.1194 4.25328L20.8294 6.51328C20.8608 6.614 20.8888 6.71525 20.9134 6.8169C20.9575 6.81238 21.0023 6.81006 21.0476 6.81006C21.7655 6.81006 22.3476 7.39209 22.3476 8.11006C22.3476 8.82803 21.7655 9.41006 21.0476 9.41006C20.9773 9.41006 20.9083 9.40448 20.841 9.39374C20.5989 10.1932 20.152 10.9333 19.5201 11.5312C19.431 11.6156 19.2904 11.6117 19.206 11.5225C19.1217 11.4334 19.1256 11.2928 19.2147 11.2085C19.7935 10.6609 20.2016 9.98218 20.4206 9.24918C20.0194 9.02788 19.7476 8.60071 19.7476 8.11006C19.7476 7.59341 20.049 7.14715 20.4855 6.93751C20.4622 6.83998 20.4355 6.74283 20.4054 6.64623L19.6955 4.38645C19.6587 4.2694 19.7238 4.1447 19.8408 4.10793Z" fill="#321B41"/>
<path d="M13.2474 9.27344C13.1777 9.27344 13.1211 9.33001 13.1211 9.39979C13.1211 9.46957 13.1777 9.52614 13.2474 9.52614H13.9674C14.0372 9.52614 14.0938 9.46957 14.0938 9.39979C14.0938 9.33001 14.0372 9.27344 13.9674 9.27344H13.2474ZM17.9174 9.27344C17.8476 9.27344 17.791 9.33001 17.791 9.39979C17.791 9.46957 17.8476 9.52614 17.9174 9.52614H18.6274C18.6971 9.52614 18.7537 9.46957 18.7537 9.39979C18.7537 9.33001 18.6971 9.27344 18.6274 9.27344H17.9174Z" fill="#990839"/>
<path d="M2.55737 26.96L2.85737 26H5.15737L4.65737 26.96H2.55737ZM9.79756 27L9.74756 26H11.8676V27H9.79756ZM22.1974 27L22.2474 26H20.1274V27H22.1974ZM29.1374 26L29.4374 26.96H27.3374L26.8374 26H29.1374Z" fill="#D3D3D3"/>
<path d="M14.8773 19.15L15.4473 19.47C15.6273 19.57 15.7073 19.79 15.6173 19.99C15.5773 20.08 15.5073 20.14 15.4273 20.17C15.4873 20.28 15.4873 20.4101 15.4273 20.5301C15.3573 20.6501 15.2273 20.72 15.0973 20.72C15.0573 20.72 15.0273 20.72 14.9973 20.71C14.9873 20.75 14.9773 20.7901 14.9573 20.83C14.8873 20.95 14.7573 21.0201 14.6273 21.0201C14.5773 21.0201 14.5173 21.01 14.4673 20.98C14.4673 21.02 14.4473 21.0601 14.4273 21.1C14.3573 21.22 14.2273 21.29 14.0973 21.29C14.0373 21.29 13.9773 21.27 13.9173 21.24L13.4673 20.99L13.4073 20.96L12.5973 20.5301C12.5473 20.51 12.5073 20.49 12.4573 20.46L12.4073 20.43C9.84735 19.0201 8.52735 16.91 7.85735 15.35C7.43735 15.34 7.02735 15.17 6.71735 14.84C6.70735 14.83 6.69734 14.82 6.67735 14.81C6.05735 14.16 6.06735 13.14 6.70735 12.5L7.38735 11.81C7.70735 11.49 8.14735 11.3 8.60735 11.3C9.12735 11.31 9.59735 11.54 9.92735 11.96C10.0973 12.19 10.2073 12.46 10.2573 12.74C10.3173 13.26 10.1473 13.75 9.79735 14.12C9.90735 14.42 10.0573 14.76 10.2473 15.12C11.0473 16.62 12.3973 17.9 13.8573 18.67H13.8873L14.7173 18.42C14.9173 18.36 15.1273 18.48 15.1773 18.69C15.2273 18.88 15.0973 19.08 14.8973 19.14L14.8773 19.15ZM24.5776 11.79L25.3576 12.59C25.9976 13.25 25.9776 14.31 25.2876 14.97L25.2676 14.99C24.7376 15.5 23.9476 15.58 23.3276 15.24C23.2937 15.2836 23.2602 15.3267 23.2271 15.3694C22.2045 16.6863 21.5315 17.5529 20.4176 18.26C20.3916 18.2762 20.3653 18.2926 20.3388 18.3092C19.8253 18.6302 19.2178 19.01 18.4476 19.01C18.1076 19.01 16.2276 19.03 16.2276 19.03C16.0176 19.03 15.8476 18.86 15.8476 18.65C15.8476 18.58 15.8676 18.51 15.9076 18.45H15.8976C15.6876 18.45 15.5176 18.28 15.5176 18.07C15.5176 17.91 15.6176 17.78 15.7576 17.72C15.6176 17.67 15.5176 17.53 15.5176 17.37C15.5176 17.16 15.6876 16.99 15.8976 16.99H16.7776L16.5976 16.81C16.4976 16.71 16.3576 16.65 16.2076 16.65H15.9076C15.6976 16.65 15.5276 16.48 15.5276 16.27C15.5276 16.06 15.6976 15.89 15.9076 15.89H16.2076C16.5476 15.89 16.8676 16.02 17.1176 16.25C17.1376 16.11 17.2476 15.98 17.3976 15.94C17.5976 15.89 17.8076 16.01 17.8576 16.21L17.9976 16.72C17.9976 16.72 19.8576 17.04 21.8176 13.49C21.7976 13.43 21.7776 13.36 21.7676 13.29C21.6476 12.62 21.9176 11.98 22.4676 11.59C22.6576 11.46 22.8676 11.37 23.0976 11.33C23.6476 11.23 24.1976 11.41 24.5776 11.79Z" fill="#FFC83D"/>
</svg>

<svg xmlns="http://www.w3.org/2000/svg" width="32" height="32" fill="none"><path fill="#F59F00" d="M27.127 16.3a1.089 1.089 0 0 0 1.41-.73l.91-2.76c.19-.59.09-1.24-.27-1.74s-.95-.8-1.57-.8h-4.16c-.63 0-1.13.5-1.13 1.13 0 .63.51 1.13 1.13 1.13h3.73l-.77 2.35c-.19.59.13 1.23.72 1.42Zm-8.81-3.54-.68.11a.418.418 0 0 1-.131-.002l.142-.178h.52a.38.38 0 0 0 .078-.752.388.388 0 0 0 .241-.338.376.376 0 0 0-.38-.39h-.63c-.26 0-.5.11-.67.31l-.51.73-.028.038c-.191.263-1.17 1.612-3.192 1.612-1.598 0-2.374-1.575-2.487-1.804l-.013-.026v.01l-2.04.91c.05.12 1.34 2.95 4.4 3.16.12.01.24.01.35.01 1.75 0 3.41-.88 4.49-2.24l.25-.26c.05-.06.12-.1.2-.11l.2-.03c.19-.03.34-.2.33-.39 0-.24-.21-.4-.44-.37Z"/><path fill="#007ACF" d="M4.247 16.1a1.34 1.34 0 0 1 1.89-.02l3.002 2.937-1.844 1.807-3.028-2.844c-.53-.51-.54-1.35-.02-1.88Zm23.5 0a1.34 1.34 0 0 0-1.89-.02l-3.063 2.997 1.831 1.817 3.102-2.914c.53-.51.54-1.35.02-1.88Z"/><path fill="#FCB100" d="m10.127 12.55-1.55-1.56 1.88-1.88 1.56 1.55-1.89 1.89Zm11.63 0 1.55-1.56-1.88-1.88-1.56 1.55 1.89 1.89Z"/><path fill="#FFC83D" d="M12.598 4.916h-1.23c-1.04 0-1.89.85-1.89 1.89l.41 1.41.37 1.37c.39 1 1.74 1.43 2.59 1.43 1.39 0 1.61-.83 1.64-2 0-.05.03-.09.08-.1.21-.05.43-.22.43-.43 0-.113-.082-.216-.184-.344a2.304 2.304 0 0 1-.216-.306.956.956 0 0 1-.11-.44v-.59c0-1.04-.85-1.89-1.89-1.89ZM19.288 4.916h1.23c1.04 0 1.89.85 1.89 1.88l-.41 1.42-.37 1.37c-.39 1-1.74 1.43-2.59 1.43-1.39 0-1.61-.83-1.64-2 0-.05-.03-.09-.08-.1-.21-.05-.43-.22-.43-.43 0-.113.082-.216.184-.344.07-.087.148-.185.216-.306.07-.13.11-.29.11-.44v-.59c0-1.04.85-1.89 1.89-1.89Z"/><path fill="#F1A11E" d="M12.048 5.776h2.13c.53-.29.65-.99.25-1.42l-.04-.05a.918.918 0 0 0-.85-.29l-1.2.21c-.07.02-.14.03-.21.03h-1.03a1.93 1.93 0 0 0-1.77 2.71l.56 1.25.55-.32.98-.99c.23-.22.36-.54.36-.86 0-.15.12-.27.27-.27ZM19.838 5.776h-2.13a.924.924 0 0 1-.24-1.44l.04-.03c.22-.24.54-.35.85-.29l1.2.21c.07.02.14.03.21.03h1.03c.65 0 1.25.33 1.61.87.36.55.42 1.24.15 1.84l-.56 1.25-.55-.33-.98-.98c-.23-.22-.36-.54-.36-.86 0-.15-.12-.27-.27-.27Z"/><path fill="#F59F00" d="m10.728 20.58-1.62-1.59-1.85 1.81 1.79 1.68c.21.21.31.48.37.79l.33 2.72h2.11v-2.72c0-1-.41-1.99-1.13-2.69Zm10.54 0 1.62-1.59 1.85 1.81-1.79 1.68c-.21.21-.31.48-.37.79l-.33 2.72h-2.11v-2.72c0-1 .41-1.99 1.13-2.69Z"/><path fill="#FFC83D" d="M6.198 21.03h-2.81l.46 1.38c.05.14.05.28 0 .42l-1.36 4.4h2.03l1.86-3.55c.22-.68.22-1.42 0-2.1l-.18-.55Zm19.6 0h2.81l-.46 1.38c-.05.14-.05.28 0 .42l1.36 4.4h-2.03l-1.86-3.55c-.22-.68-.22-1.42 0-2.1l.18-.55Z"/><path fill="#533566" d="M2.557 26.96h2.1l1.86 1.24c.12.08.19.22.19.36 0 .24-.19.43-.43.43h-3.98c-.2 0-.35-.2-.28-.39l.54-1.64Zm24.78 0h2.1l.54 1.64c.07.19-.08.39-.28.39h-3.98c-.24 0-.43-.19-.43-.43 0-.14.07-.28.19-.36l1.86-1.24Zm-15.47.04 2.03 1.08c.16.08.26.25.25.43 0 .27-.22.49-.49.49h-3.36c-.24 0-.43-.19-.43-.43L9.797 27h2.07Zm8.26 0-2.03 1.08c-.16.08-.26.25-.25.43 0 .27.22.49.49.49h3.36c.24 0 .43-.19.43-.43l.07-1.57h-2.07Z"/><path fill="#fff" d="M14.137 7.98c0 .09-.06.16-.13.16h-.9c-.07 0-.13-.07-.13-.16v-.01c0-.34.3-.54.58-.54.28 0 .58.19.58.54v.01Zm3.61 0c0 .09.06.16.13.16h.9c.07 0 .13-.07.13-.16v-.01c0-.34-.3-.54-.58-.54-.28 0-.58.19-.58.54v.01Z"/><path fill="#7D4533" d="M14.137 7.98c0 .06 0 .11-.02.16h-.68a.777.777 0 0 1-.02-.16c0-.26.16-.46.36-.46.2 0 .36.21.36.46Zm3.61 0c0 .06 0 .11.02.16h.68c.01-.05.02-.1.02-.16 0-.26-.16-.46-.36-.46-.2 0-.36.21-.36.46Z"/><path fill="#000" d="M14.047 7.98c0 .06-.02.12-.05.16h-.3a.277.277 0 0 1-.05-.16c0-.14.09-.26.2-.26.11 0 .2.12.2.26Zm3.79 0c0 .06.02.12.05.16h.3c.03-.04.05-.1.05-.16 0-.14-.09-.26-.2-.26-.11 0-.2.12-.2.26Z"/><path fill="#fff" d="M14.037 7.8c0 .05-.03.09-.07.09-.038 0-.07-.04-.07-.09 0-.05.032-.09.07-.09.04 0 .07.04.07.09Zm3.95 0c0 .05-.03.09-.07.09-.038 0-.07-.04-.07-.09 0-.05.032-.09.07-.09.04 0 .07.04.07.09Z"/><path fill="#D37034" d="M13.057 6.915a.135.135 0 0 0 0 .27h.82a.135.135 0 0 0 0-.27h-.82ZM18.008 6.915a.135.135 0 0 0 0 .27h.82a.135.135 0 1 0-.001-.27h-.82Z"/><path fill="#D37034" d="M13.058 6.65a.275.275 0 1 0 0 .55h.82a.275.275 0 1 0 0-.55h-.82ZM18.008 6.65a.275.275 0 1 0 0 .55h.82a.275.275 0 1 0 0-.55h-.82Z"/><path fill="#0092E7" d="M2.377 17.96c-.49-1.36-.14-2.48.78-3.33l3.55-3.55a2.668 2.668 0 0 1 3.77 0 2.668 2.668 0 0 1 0 3.77l-2.98 3.12c-.57.59-1.34.83-2.07.73l.795 2.41H3.418l-1.04-3.15Zm26.2 3.15 1.04-3.15c.49-1.36.14-2.48-.78-3.33l-3.55-3.55a2.668 2.668 0 0 0-3.77 0 2.668 2.668 0 0 0 0 3.77l2.98 3.11c.57.59 1.34.83 2.07.73l-.798 2.42h2.808Z"/><path fill="#321B41" d="M12.18 4.386a.222.222 0 0 0-.425-.132l-.7 2.26c-.03.1-.059.201-.083.303a1.3 1.3 0 1 0 .072 2.577c.242.8.689 1.54 1.32 2.137a.222.222 0 1 0 .306-.322 4.448 4.448 0 0 1-1.206-1.96 1.3 1.3 0 0 0-.065-2.311c.024-.098.05-.196.08-.292l.7-2.26Zm7.66-.278a.222.222 0 0 1 .28.145l.71 2.26c.03.101.059.202.083.304a1.3 1.3 0 1 1-.072 2.577c-.242.8-.689 1.54-1.32 2.137a.222.222 0 1 1-.306-.322 4.447 4.447 0 0 0 1.206-1.96 1.3 1.3 0 0 1 .064-2.311 4.473 4.473 0 0 0-.08-.292l-.71-2.26a.222.222 0 0 1 .146-.278Z"/><path fill="#990839" d="M13.247 9.273a.126.126 0 0 0 0 .253h.72a.126.126 0 1 0 0-.253h-.72Zm4.67 0a.126.126 0 1 0 0 .253h.71a.126.126 0 0 0 0-.253h-.71Z"/><path fill="#D3D3D3" d="m2.557 26.96.3-.96h2.3l-.5.96h-2.1Zm7.24.04-.05-1h2.12v1h-2.07Zm12.4 0 .05-1h-2.12v1h2.07Zm6.94-1 .3.96h-2.1l-.5-.96h2.3Z"/><path fill="#FFC83D" d="m14.877 19.15.57.32c.18.1.26.32.17.52-.04.09-.11.15-.19.18.06.11.06.24 0 .36-.07.12-.2.19-.33.19-.04 0-.07 0-.1-.01-.01.04-.02.08-.04.12-.07.12-.2.19-.33.19-.05 0-.11-.01-.16-.04 0 .04-.02.08-.04.12-.07.12-.2.19-.33.19-.06 0-.12-.02-.18-.05l-.45-.25-.06-.03-.81-.43a.924.924 0 0 1-.14-.07l-.05-.03c-2.56-1.41-3.88-3.52-4.55-5.08-.42-.01-.83-.18-1.14-.51a.138.138 0 0 0-.04-.03c-.62-.65-.61-1.67.03-2.31l.68-.69c.32-.32.76-.51 1.22-.51.52.01.99.24 1.32.66.17.23.28.5.33.78.06.52-.11 1.01-.46 1.38.11.3.26.64.45 1 .8 1.5 2.15 2.78 3.61 3.55h.03l.83-.25c.2-.06.41.06.46.27.05.19-.08.39-.28.45l-.02.01Zm9.7-7.36.78.8c.64.66.62 1.72-.07 2.38l-.02.02c-.53.51-1.32.59-1.94.25l-.1.13c-1.023 1.316-1.695 2.183-2.81 2.89l-.078.05c-.514.32-1.121.7-1.891.7-.34 0-2.22.02-2.22.02a.38.38 0 0 1-.38-.38c0-.07.02-.14.06-.2h-.01a.38.38 0 0 1-.38-.38c0-.16.1-.29.24-.35a.371.371 0 0 1-.24-.35c0-.21.17-.38.38-.38h.88l-.18-.18c-.1-.1-.24-.16-.39-.16h-.3a.38.38 0 1 1 0-.76h.3c.34 0 .66.13.91.36.02-.14.13-.27.28-.31.2-.05.41.07.46.27l.14.51s1.86.32 3.82-3.23a1.688 1.688 0 0 1 .65-1.9c.19-.13.4-.22.63-.26.55-.1 1.1.08 1.48.46Z"/></svg>
